svg/fluentui-system-icons/ic_fluent_mic_sync_20_regular.svg

<svg width="20" height="20" viewBox="0 0 20 20" fill="none" xmlns="http://www.w3.org/2000/svg">
<path d="M9 13C9.07028 13 9.14 12.9976 9.20907 12.9928C9.31908 12.6059 9.47039 12.2363 9.65793 11.8892C9.45189 11.961 9.2305 12 9 12C7.89543 12 7 11.1046 7 9.99998V5C7 3.89543 7.89543 3 9 3C10.1046 3 11 3.89543 11 5V9.99998C11 10.0924 10.9937 10.1833 10.9816 10.2724C11.2937 10.0124 11.6351 9.78627 12 9.59971V5C12 3.34315 10.6569 2 9 2C7.34315 2 6 3.34315 6 5V9.99998C6 11.6568 7.34315 13 9 13ZM4.5 9.99998C4.5 12.4853 6.51472 14.5 9 14.5C9 15.3189 9.179 16.0961 9.5 16.7945V17.5C9.5 17.7761 9.27614 18 9 18C8.72386 18 8.5 17.7761 8.5 17.5V15.4776C5.69675 15.2249 3.5 12.869 3.5 9.99998C3.5 9.72384 3.72386 9.49998 4 9.49998C4.27614 9.49998 4.5 9.72384 4.5 9.99998ZM10 14.5C10 16.9853 12.0147 19 14.5 19C16.9853 19 19 16.9853 19 14.5C19 12.0147 16.9853 10 14.5 10C12.0147 10 10 12.0147 10 14.5ZM16.5 11.5C16.7761 11.5 17 11.7239 17 12V13.5C17 13.7761 16.7761 14 16.5 14H15C14.7239 14 14.5 13.7761 14.5 13.5C14.5 13.2239 14.7239 13 15 13H15.4682C15.4179 12.9722 15.3663 12.9464 15.3135 12.923C15.0682 12.8137 14.8034 12.755 14.535 12.7503C14.2665 12.7456 13.9998 12.795 13.7508 12.8956C13.5018 12.9962 13.2756 13.1459 13.0857 13.3358C12.8905 13.531 12.5739 13.531 12.3786 13.3358C12.1834 13.1405 12.1834 12.8239 12.3786 12.6287C12.6635 12.3439 13.0027 12.1193 13.3762 11.9684C13.7497 11.8175 14.1497 11.7434 14.5524 11.7505C14.9552 11.7575 15.3524 11.8456 15.7203 12.0094C15.8162 12.0521 15.9095 12.0997 16 12.1519V12C16 11.7239 16.2239 11.5 16.5 11.5ZM15.6238 17.0316C15.2503 17.1825 14.8503 17.2566 14.4476 17.2495C14.0448 17.2425 13.6476 17.1544 13.2797 16.9906C13.1838 16.9479 13.0905 16.9003 13 16.8481V17C13 17.2761 12.7761 17.5 12.5 17.5C12.2239 17.5 12 17.2761 12 17V15.5C12 15.2239 12.2239 15 12.5 15H14C14.2761 15 14.5 15.2239 14.5 15.5C14.5 15.7761 14.2761 16 14 16H13.5318C13.5821 16.0278 13.6337 16.0536 13.6865 16.077C13.9318 16.1863 14.1966 16.245 14.465 16.2497C14.7335 16.2544 15.0002 16.205 15.2492 16.1044C15.4982 16.0038 15.7244 15.8541 15.9143 15.6642C16.1095 15.469 16.4261 15.469 16.6214 15.6642C16.8166 15.8595 16.8166 16.1761 16.6214 16.3713C16.3365 16.6561 15.9973 16.8807 15.6238 17.0316Z" fill="#212121"/>
</svg>

<svg xmlns="http://www.w3.org/2000/svg" width="20" height="20"><path d="M9 13c.07 0 .14-.002.21-.007.11-.387.26-.757.448-1.104A2 2 0 0 1 7 10V5.001a2 2 0 1 1 4 0v5c0 .092-.006.183-.018.272A5.47 5.47 0 0 1 12 9.601V5a3 3 0 1 0-6 0v5a3 3 0 0 0 3 3Zm-4.5-3A4.5 4.5 0 0 0 9 14.5c0 .819.179 1.596.5 2.294v.706a.5.5 0 0 1-1 0v-2.022A5.5 5.5 0 0 1 3.5 10a.5.5 0 0 1 1 0Zm5.5 4.5a4.5 4.5 0 1 0 9 0 4.5 4.5 0 0 0-9 0Zm6.5-3a.5.5 0 0 1 .5.5v1.5a.5.5 0 0 1-.5.5H15a.5.5 0 0 1 0-1h.468a1.999 1.999 0 0 0-2.383.336.5.5 0 0 1-.706-.707A3.001 3.001 0 0 1 16 12.152V12a.5.5 0 0 1 .5-.5Zm-.876 5.532A2.999 2.999 0 0 1 13 16.848V17a.5.5 0 0 1-1 0v-1.5a.5.5 0 0 1 .5-.5H14a.5.5 0 0 1 0 1h-.468a1.999 1.999 0 0 0 2.383-.336.5.5 0 0 1 .706.707c-.284.285-.624.51-.997.66Z"/></svg>
